X:1
T:[ID 6-59]
T:[ID 6-59]
T:Bezeichnung standardisiert: Polonaise Polonoise
T:Urheber unbekannt Datum in der hier transkribierten schriftlichen Quelle: 1776 - 1791
C:Urheber unbekannt
C:Datum in der hier transkribierten schriftlichen Quelle: 1776 - 1791
%%score 1 2
L:1/8
M:3/4
K:D
V:1 treble 
V:2 treble nm="Secondo"
V:1
 a>b ad'c'b | a>b ad'c'b | ad'/a/ gc'/g/ f/d/f/a/ | gg/f/{f} e4 | e>f egfe :: fa aa/g/{g} f2 | %6
 e>f egfe | fa aa/g/{g} f2 | ad'/a/ ge'/g/ fd'/f/ | e/g/f/e/{e} d4 | x6 :| %11
V:2
 !fermata!f>g fbag | f>g fbag | ffee"^1)" x2 | d/B/d/f/ x4 | ee/d/{d} c4 :: c>d cedc | %6
 df ff/e/{e} d2 | c>d cedc | df ff/e/{e} d2 | f2 e2 d2 | c/B/A/G/{G} B4 :| %11

